lg/aws-cloudwatch.svg

<svg viewBox="0 0 256 256" version="1.1" xmlns="http://www.w3.org/2000/svg" preserveAspectRatio="xMidYMid" height="1em" width="1em">
  <defs>
    <linearGradient x1="0%" y1="100%" x2="100%" y2="0%" id="a">
      <stop stop-color="#B0084D" offset="0%"/>
      <stop stop-color="#FF4F8B" offset="100%"/>
    </linearGradient>
  </defs>
  <g>
    <rect fill="url(#a)" x="0" y="0" width="256" height="256"/>
    <path d="M176.189541,149.687586 C176.189541,137.17769 165.944188,127.000418 153.350607,127.000418 C140.757026,127.000418 130.51489,137.17769 130.51489,149.687586 C130.51489,162.197483 140.757026,172.374755 153.350607,172.374755 C165.944188,172.374755 176.189541,162.197483 176.189541,149.687586 M182.623044,149.687586 C182.623044,165.721982 169.492265,178.765506 153.350607,178.765506 C137.212166,178.765506 124.081387,165.721982 124.081387,149.687586 C124.081387,133.65319 137.212166,120.609666 153.350607,120.609666 C169.492265,120.609666 182.623044,133.65319 182.623044,149.687586 M209.630887,193.515361 L187.203697,173.448401 C185.392666,175.982334 183.298561,178.295786 180.97285,180.363194 L203.367872,200.426959 C205.278623,202.139681 208.250901,201.979912 209.978296,200.081859 C211.696042,198.183805 211.541637,195.234474 209.630887,193.515361 M153.350607,184.517183 C172.686499,184.517183 188.416412,168.891795 188.416412,149.687586 C188.416412,130.480182 172.686499,114.857989 153.350607,114.857989 C134.017932,114.857989 118.288018,130.480182 118.288018,149.687586 C118.288018,168.891795 134.017932,184.517183 153.350607,184.517183 M214.758389,204.360467 C212.564564,206.772976 209.531168,208 206.491338,208 C203.840735,208 201.183698,207.06695 199.063859,205.175288 L175.777797,184.315874 C169.302476,188.469863 161.617658,190.907935 153.350607,190.907935 C130.469855,190.907935 111.854516,172.416295 111.854516,149.687586 C111.854516,126.958878 130.469855,108.467238 153.350607,108.467238 C176.234575,108.467238 194.849915,126.958878 194.849915,149.687586 C194.849915,156.209348 193.276924,162.357252 190.549119,167.843712 L213.938117,188.770228 C218.48017,192.850723 218.84688,199.83901 214.758389,204.360467 M68.0970477,94.0560928 C68.0970477,95.7176883 68.1999837,97.3728928 68.3962058,98.9737763 C68.508792,99.8844582 68.2257178,100.79514 67.614535,101.482146 C67.1288058,102.028556 66.4758051,102.389633 65.7616864,102.511057 C57.851695,104.540121 44.8335024,110.681633 44.8335024,129.10617 C44.8335024,143.018837 52.5569222,150.697325 59.0386762,154.691545 C61.251801,156.078338 63.8702365,156.81647 66.6334259,156.845228 L105.424229,156.880377 L105.417796,163.271129 L66.5980416,163.23598 C62.6124867,163.19444 58.8295872,162.114403 55.6289197,160.110902 C49.2050675,156.151832 38.4,146.846897 38.4,129.10617 C38.4,107.71952 53.1198538,99.81416 61.7600477,97.0214016 C61.6957126,96.0372259 61.6635453,95.0466592 61.6635453,94.0560928 C61.6635453,76.5837776 73.5944758,58.4628013 89.4144586,51.9090854 C107.917212,44.2082294 127.520094,48.0267037 141.844288,62.1151158 C146.283404,66.4799994 149.934417,71.7811277 152.736207,77.9130541 C156.499806,74.8167347 161.138362,73.1072086 166.027824,73.1072086 C175.63626,73.1072086 186.450978,80.3511258 188.377812,96.193799 C197.375065,98.2548166 216.386065,105.457194 216.386065,129.352214 C216.386065,138.893607 213.375186,146.773404 207.433846,152.774319 L202.846759,148.291207 C207.562516,143.530097 209.952562,137.158517 209.952562,129.352214 C209.952562,108.451261 192.337632,103.252384 184.758966,101.990211 C183.896877,101.846419 183.134507,101.360722 182.642344,100.644958 C182.163048,99.9547565 181.979693,99.1079821 182.124447,98.2867702 C181.072569,85.3135443 173.313765,79.4979603 166.027824,79.4979603 C161.431086,79.4979603 157.120639,81.7219421 154.199829,85.6011283 C153.488927,86.5405686 152.334114,87.0198752 151.150349,86.8473248 C149.982668,86.6747744 149.001559,85.8759306 148.599465,84.7735258 C145.964946,77.5232182 142.16918,71.426441 137.318318,66.6589402 C124.904875,54.4494093 107.930079,51.1389997 91.8945738,57.8077491 C78.5482726,63.3357494 68.0970477,79.2551117 68.0970477,94.0560928" fill="#FFFFFF"/>
  </g>
</svg>

<svg viewBox="0 0 256 256" xmlns="http://www.w3.org/2000/svg" preserveAspectRatio="xMidYMid" height="1em" width="1em">
  <defs>
    <linearGradient x1="0%" y1="100%" x2="100%" y2="0%" id="a">
      <stop stop-color="#B0084D" offset="0%"/>
      <stop stop-color="#FF4F8B" offset="100%"/>
    </linearGradient>
  </defs>
  <path fill="url(#a)" d="M0 0h256v256H0z"/>
  <path d="M176.19 149.688c0-12.51-10.246-22.688-22.84-22.688-12.593 0-22.835 10.178-22.835 22.688 0 12.51 10.242 22.687 22.836 22.687 12.593 0 22.839-10.178 22.839-22.687m6.433 0c0 16.034-13.13 29.078-29.272 29.078-16.139 0-29.27-13.044-29.27-29.078 0-16.035 13.131-29.078 29.27-29.078 16.141 0 29.272 13.043 29.272 29.078m27.008 43.827-22.427-20.067a41.704 41.704 0 0 1-6.231 6.915l22.395 20.064c1.91 1.713 4.883 1.553 6.61-.345 1.718-1.898 1.564-4.848-.347-6.567m-56.28-8.998c19.335 0 35.065-15.625 35.065-34.83 0-19.207-15.73-34.829-35.065-34.829-19.333 0-35.063 15.622-35.063 34.83 0 19.204 15.73 34.83 35.063 34.83m61.407 19.842a11.145 11.145 0 0 1-8.267 3.64 11.12 11.12 0 0 1-7.427-2.825l-23.286-20.86c-6.476 4.155-14.16 6.593-22.427 6.593-22.881 0-41.496-18.492-41.496-41.22 0-22.73 18.615-41.22 41.496-41.22 22.884 0 41.499 18.49 41.499 41.22 0 6.521-1.573 12.67-4.3 18.156l23.388 20.926c4.542 4.08 4.909 11.069.82 15.59M68.097 94.056c0 1.662.103 3.317.3 4.918a3.194 3.194 0 0 1-2.635 3.537c-7.91 2.03-20.928 8.17-20.928 26.595 0 13.913 7.723 21.591 14.205 25.586 2.213 1.386 4.831 2.124 7.594 2.153l38.791.035-.006 6.391-38.82-.035c-3.986-.042-7.768-1.122-10.97-3.125-6.423-3.96-17.228-13.264-17.228-31.005 0-21.386 14.72-29.292 23.36-32.085a45.496 45.496 0 0 1-.096-2.965c0-17.472 11.93-35.593 27.75-42.147 18.503-7.7 38.106-3.882 52.43 10.206 4.44 4.365 8.09 9.666 10.892 15.798 3.764-3.096 8.402-4.806 13.292-4.806 9.608 0 20.423 7.244 22.35 23.087 8.997 2.06 28.008 9.263 28.008 33.158 0 9.542-3.01 17.421-8.952 23.422l-4.587-4.483c4.716-4.76 7.106-11.132 7.106-18.939 0-20.9-17.615-26.1-25.194-27.362a3.206 3.206 0 0 1-2.117-1.345 3.167 3.167 0 0 1-.518-2.358c-1.051-12.973-8.81-18.789-16.096-18.789-4.597 0-8.907 2.224-11.828 6.103a3.22 3.22 0 0 1-3.05 1.246 3.217 3.217 0 0 1-2.55-2.073c-2.635-7.25-6.43-13.348-11.282-18.115-12.413-12.21-29.388-15.52-45.423-8.851-13.347 5.528-23.798 21.447-23.798 36.248" fill="#FFF"/>
</svg>
